X: 1
T: The Colonel's Quickstep
T: for Col M Murial Gibson
C: Bill Clement
R: quickstep, jig
Z: 2005 John Chambers <jc:trillian.mit.edu>
S: image from Atsuko Clement
M: 6/8
L: 1/8
K: D
|: A \
| "D"d2d a2d | "D"fed a3 |  "D"fed "G"dcB | "D"A<fd "A7"e2A \
| "D"d2d a2d | "D"fed a3 | "Bm"fed "G"dcB | "A7"Aec "D"d2 :|
|: A \
| "D"f>aa a2f | "D"fed "G"B3 | "D"fed "G"dcB | "D"A<fd "A7"e2A \
| "D"f>aa a2f | "D"fed "G"B3 | "D"fed "G"dcB | "A7"Aec "D"d2 :|
